app/images/icons/address.svg

<?xml version="1.0" encoding="UTF-8"?>
<svg xmlns="http://www.w3.org/2000/svg" xmlns:xlink="http://www.w3.org/1999/xlink" width="37pt" height="37pt" viewBox="0 0 37 37" version="1.1">
<g id="surface1">
<path style=" stroke:none;fill-rule:nonzero;fill:rgb(0%,0%,0%);fill-opacity:1;" d="M 35.972656 12.273438 L 18.917969 0.132812 C 18.667969 -0.0429688 18.332031 -0.0429688 18.082031 0.132812 L 1.027344 12.273438 C 0.769531 12.457031 0.660156 12.785156 0.757812 13.082031 C 0.851562 13.382812 1.132812 13.585938 1.445312 13.585938 L 3.902344 13.585938 L 3.902344 32.085938 L 2.671875 32.085938 C 2.273438 32.085938 1.949219 32.410156 1.949219 32.808594 L 1.949219 36.277344 C 1.949219 36.675781 2.273438 37 2.671875 37 L 34.328125 37 C 34.726562 37 35.046875 36.675781 35.046875 36.277344 L 35.046875 32.808594 C 35.046875 32.410156 34.726562 32.085938 34.328125 32.085938 L 33.097656 32.085938 L 33.097656 13.585938 L 35.554688 13.585938 C 35.867188 13.585938 36.148438 13.382812 36.242188 13.082031 C 36.339844 12.785156 36.230469 12.457031 35.972656 12.273438 Z M 33.601562 35.554688 L 3.398438 35.554688 L 3.398438 33.53125 L 33.601562 33.53125 Z M 23.269531 32.085938 L 13.730469 32.085938 L 13.730469 17.632812 L 23.269531 17.632812 Z M 21.75 12.140625 C 21.351562 12.140625 21.03125 12.464844 21.03125 12.863281 C 21.03125 13.261719 21.351562 13.585938 21.75 13.585938 L 31.652344 13.585938 L 31.652344 32.085938 L 24.714844 32.085938 L 24.714844 16.910156 C 24.714844 16.511719 24.390625 16.1875 23.992188 16.1875 L 13.007812 16.1875 C 12.609375 16.1875 12.285156 16.511719 12.285156 16.910156 L 12.285156 32.085938 L 5.347656 32.085938 L 5.347656 13.585938 L 15.25 13.585938 C 15.648438 13.585938 15.96875 13.261719 15.96875 12.863281 C 15.96875 12.464844 15.648438 12.140625 15.25 12.140625 L 3.707031 12.140625 L 18.5 1.609375 L 33.292969 12.140625 Z M 21.75 12.140625 "/>
<path style=" stroke:none;fill-rule:nonzero;fill:rgb(0%,0%,0%);fill-opacity:1;" d="M 16.453125 25.582031 C 16.644531 25.582031 16.828125 25.503906 16.964844 25.371094 C 17.097656 25.234375 17.175781 25.050781 17.175781 24.859375 C 17.175781 24.667969 17.097656 24.484375 16.964844 24.347656 C 16.828125 24.214844 16.644531 24.136719 16.453125 24.136719 C 16.261719 24.136719 16.074219 24.214844 15.941406 24.347656 C 15.808594 24.484375 15.730469 24.667969 15.730469 24.859375 C 15.730469 25.050781 15.808594 25.234375 15.941406 25.371094 C 16.078125 25.503906 16.261719 25.582031 16.453125 25.582031 Z M 16.453125 25.582031 "/>
<path style=" stroke:none;fill-rule:nonzero;fill:rgb(0%,0%,0%);fill-opacity:1;" d="M 17.988281 12.351562 C 17.855469 12.488281 17.777344 12.671875 17.777344 12.863281 C 17.777344 13.054688 17.855469 13.238281 17.988281 13.375 C 18.125 13.507812 18.308594 13.585938 18.5 13.585938 C 18.691406 13.585938 18.875 13.507812 19.011719 13.375 C 19.144531 13.238281 19.222656 13.054688 19.222656 12.863281 C 19.222656 12.671875 19.144531 12.488281 19.011719 12.351562 C 18.875 12.21875 18.691406 12.140625 18.5 12.140625 C 18.308594 12.140625 18.125 12.21875 17.988281 12.351562 Z M 17.988281 12.351562 "/>
</g>
</svg>

<svg xmlns="http://www.w3.org/2000/svg" width="37pt" height="37pt" viewBox="0 0 37 37"><g id="surface1"><path d="M35.973 12.273L18.918.133a.728.728 0 00-.836 0L1.027 12.273a.72.72 0 00-.27.809.72.72 0 00.688.504h2.457v18.5h-1.23a.724.724 0 00-.723.723v3.468c0 .399.324.723.723.723h31.656a.72.72 0 00.719-.723V32.81a.72.72 0 00-.719-.723h-1.23v-18.5h2.457a.72.72 0 00.687-.504.72.72 0 00-.27-.809zm-2.371 23.282H3.398V33.53h30.204zm-10.332-3.47h-9.54V17.634h9.54zm-1.52-19.944a.72.72 0 00-.719.722c0 .399.32.723.719.723h9.902v18.5h-6.937V16.91a.724.724 0 00-.723-.723H13.008a.724.724 0 00-.723.723v15.176H5.348v-18.5h9.902a.72.72 0 00.719-.723.72.72 0 00-.719-.722H3.707L18.5 1.609l14.793 10.532zm0 0"/><path d="M16.453 25.582a.738.738 0 00.512-.21.738.738 0 00.21-.513.738.738 0 00-.21-.511.738.738 0 00-.512-.211.73.73 0 00-.512.21.738.738 0 00-.21.512.74.74 0 00.21.512c.137.133.32.211.512.211zm1.535-13.23a.738.738 0 00-.21.511c0 .192.077.375.21.512.137.133.32.21.512.21a.738.738 0 00.512-.21.738.738 0 00.21-.512.738.738 0 00-.21-.511.738.738 0 00-.512-.211.738.738 0 00-.512.21zm0 0"/></g></svg>
